src/assets/icons/net-tron.svg

<?xml version="1.0" encoding="UTF-8"?>
<svg width="40px" height="40px" viewBox="0 0 40 40" version="1.1" xmlns="http://www.w3.org/2000/svg" xmlns:xlink="http://www.w3.org/1999/xlink">
    <title>路径备份</title>
    <g id="扩展程序" stroke="none" stroke-width="1" fill="none" fill-rule="evenodd">
        <g id="资产" transform="translate(-40.000000, -395.000000)">
            <g id="编组-2备份-2" transform="translate(20.000000, 375.000000)">
                <g id="编组" transform="translate(20.000000, 20.000000)">
                    <circle id="椭圆形" fill="#D80A16" cx="20" cy="20" r="20"></circle>
                    <path d="M11.862912,10.001337 C11.9862346,10.0017241 12.1093857,10.0108843 12.2314948,10.0287532 L26.5444243,12.0061415 C26.6401366,12.0222492 26.7342736,12.0450842 26.8262318,12.0743375 C27.0250304,12.0843394 27.2218876,12.1679606 27.3738698,12.3252861 L27.4143404,12.3710333 C27.5003846,12.4331283 27.5821991,12.5020213 27.6590009,12.5773109 L31.1130849,16.1528311 C31.7878757,16.8763884 31.8534209,18.0007527 31.2675807,18.803057 L20.9152606,32.4402969 C20.5525046,32.9756676 19.9694872,33.3055101 19.3383002,33.3324634 C19.260036,33.3360834 19.1816663,33.3283938 19.105453,33.3096166 C18.3997365,33.1731168 17.8233459,32.6466566 17.6046369,31.9388101 L10.18884,12.74295 C9.88684055,12.0811682 9.95042725,11.3026349 10.3554747,10.702733 C10.7247741,10.2383567 11.2822563,9.97896563 11.862912,10.001337 Z M29.158,18.778 L20.961,20.477 L20.058,30.77 L29.158,18.778 Z M12.338,13.698 L18.49,29.619 L19.3283683,20.1270276 L12.338,13.698 Z M12.811,11.839 L20.151,18.591 L25.045,13.524 L12.811,11.839 Z M26.808,14.121 L22.7041008,18.3666836 L29.544,16.952 L26.808,14.121 Z" id="形状" fill="#FFFFFF" fill-rule="nonzero"></path>
                </g>
            </g>
        </g>
    </g>
</svg>

<svg width="40" height="40" xmlns="http://www.w3.org/2000/svg"><g fill="none" fill-rule="evenodd"><circle fill="#d80a16" cx="20" cy="20" r="20"/><path d="M11.863 10.001c.123 0 .246.01.368.028l14.313 1.977c.096.016.19.04.282.068.199.01.396.094.548.251l.04.046c.086.062.168.131.245.206l3.454 3.576c.675.723.74 1.848.155 2.65L20.915 32.44a2.012 2.012 0 0 1-1.577.892.816.816 0 0 1-.233-.022 1.976 1.976 0 0 1-1.5-1.371l-7.416-19.196a2.101 2.101 0 0 1 .166-2.04c.37-.465.927-.724 1.508-.702zm17.295 8.777-8.197 1.699-.903 10.293 9.1-11.992zm-16.82-5.08 6.152 15.921.838-9.492-6.99-6.429zm.473-1.859 7.34 6.752 4.894-5.067-12.234-1.685zm13.997 2.282-4.104 4.246 6.84-1.415-2.736-2.831z" fill="#fff" fill-rule="nonzero"/></g></svg>
